assets/img/icons/world.svg

<svg width="7" height="14" viewBox="0 0 7 14" version="1.1" xmlns="http://www.w3.org/2000/svg" xmlns:xlink="http://www.w3.org/1999/xlink">
<title>world</title>
<desc>Created using Figma</desc>
<g id="Canvas" transform="translate(477 -1128)">
<g id="world">
<g id="Shape">
<use xlink:href="#path0_fill" transform="translate(-484.999 1127.14)" fill="#FFFFFF"/>
</g>
</g>
</g>
<defs>
<path id="path0_fill" fill-rule="evenodd" d="M 11.111 5.28503C 10.6498 3.0697 9.26202 1.40381 8.41992 1.05432L 8.41992 5.39734C 9.26202 5.38696 10.3702 5.34399 11.111 5.28503ZM 14.0244 4.82153C 13.8709 4.86865 13.2488 5.04224 12.0185 5.18787C 11.7409 3.71143 11.2399 2.45325 10.5864 1.54492C 12.0845 2.19421 13.3027 3.36304 14.0244 4.82153ZM 8.41992 6.37585C 9.26202 6.36487 10.4424 6.31848 11.2261 6.25342C 11.2906 6.77161 11.3069 7.30798 11.3069 7.85962C 11.3069 8.56812 11.2817 9.25525 11.1772 9.90454C 10.4056 9.84216 9.26202 9.79724 8.41992 9.78723L 8.41992 6.37585ZM 8.41992 10.7657L 8.41992 14.6653C 9.26202 14.3394 10.5089 12.8662 11.0085 10.871C 10.2871 10.8154 9.26202 10.7759 8.41992 10.7657ZM 10.5864 14.1748C 11.1753 13.3563 11.6443 12.2577 11.9338 10.9673C 12.9016 11.0787 13.5113 11.2084 13.8187 11.2859C 13.0786 12.5703 11.9455 13.583 10.5864 14.1748ZM 12.1667 6.15527C 12.3144 7.4342 12.2946 8.72705 12.1078 10.0009C 13.3027 10.1409 13.9823 10.3099 14.2526 10.3888C 14.5642 9.6051 14.7411 8.75317 14.7411 7.85962C 14.7407 6.97644 14.5691 6.10181 14.2358 5.28394L 14.3938 5.73022C 14.3495 5.74597 13.6797 5.97363 12.1667 6.15527Z"/>
</defs>
</svg>

<svg width="7" height="14" xmlns="http://www.w3.org/2000/svg" xmlns:xlink="http://www.w3.org/1999/xlink"><use xlink:href="#path0_fill" transform="translate(-7.999 -.86)" fill="#FFF"/><defs><path id="path0_fill" fill-rule="evenodd" d="M11.111 5.285c-.4612-2.2153-1.849-3.8812-2.691-4.2307v4.343c.842-.0103 1.9502-.0533 2.691-.1123zm2.9134-.4635c-.1535.0471-.7756.2207-2.0059.3664-.2776-1.4765-.7786-2.7346-1.4321-3.643 1.4981.6493 2.7163 1.8181 3.438 3.2766zM8.4199 6.3758c.8421-.011 2.0225-.0573 2.8062-.1224.0645.5182.0808 1.0546.0808 1.6062 0 .7085-.0252 1.3956-.1297 2.045-.7716-.0624-1.9152-.1074-2.7573-.1174V6.3758zm0 4.3899v3.8996c.8421-.3259 2.089-1.7991 2.5886-3.7943-.7214-.0556-1.7465-.0951-2.5886-.1053zm2.1665 3.4091c.5889-.8185 1.0579-1.9171 1.3474-3.2075.9678.1114 1.5775.2411 1.8849.3186a6.9182 6.9182 0 0 1-3.2323 2.8889zm1.5803-8.0195a14.8018 14.8018 0 0 1-.0589 3.8456c1.1949.14 1.8745.309 2.1448.3879.3116-.7837.4885-1.6356.4885-2.5292a6.833 6.833 0 0 0-.5053-2.5757l.158.4463c-.0443.0158-.7141.2434-2.2271.425z"/></defs></svg>
